icons/1_Primary/Homey.svg

<svg xmlns="http://www.w3.org/2000/svg" width="1024" height="1024" fill="none">
   <g clip-path="url(#a)">
      <path fill="#FF837D" d="M512 1024c282.77 0 512-229.23 512-512S794.77 0 512 0 0 229.23 0 512s229.23 512 512 512Z"/>
      <path fill="#fff" d="M718.25 661.93a182.215 182.215 0 0 0 8-8.85 248.241 248.241 0 0 1-13.12 18.18 254.621 254.621 0 0 1-47.94 46.42c-2.98 2.213-6.01 4.36-9.09 6.44A254.724 254.724 0 0 1 596.38 754a245.623 245.623 0 0 1-10.69 3.42 258.927 258.927 0 0 1-32.52 7.34 263.73 263.73 0 0 1-22.21 2.57c-3.72.273-7.45.463-11.19.57-7.466.22-14.933.113-22.4-.32a246.104 246.104 0 0 1-33.27-4.2 229.217 229.217 0 0 1-32.24-8.8 214.506 214.506 0 0 1-20.57-8.5 264.885 264.885 0 0 1-9.5-4.77 246.725 246.725 0 0 1-9.29-5.16 259.996 259.996 0 0 1-17.89-11.43 256.558 256.558 0 0 1-62.74-62.35 64.397 64.397 0 0 1-6-11.08c-1.39-3.14-2.67-6.33-3.91-9.39-2.45-6.09-4.56-12.32-6.43-18.62-.25-.85-.55-1.68-.79-2.53-.986-3.5-1.876-7.017-2.67-10.55a205.4 205.4 0 0 1-4.77-53.81 207.249 207.249 0 0 1 12.78-63.31 199.94 199.94 0 0 1 19.42-38.78 197.85 197.85 0 0 1 14.44-19.56 206.547 206.547 0 0 1 5.48-6.28c1.53-1.68 3.07-3.33 4.65-5A203.399 203.399 0 0 1 363.49 406c2.827-2.24 5.71-4.403 8.65-6.49a185.238 185.238 0 0 1 8.19-5.53c1.934-1.24 3.89-2.447 5.87-3.62 3.334-1.96 6.69-3.827 10.07-5.6 2.23-1.16 4.47-2.29 6.73-3.37a204.276 204.276 0 0 1 20.74-8.48 199.974 199.974 0 0 1 43.88-9.85h.49c1.78-.187 3.56-.353 5.34-.5h.25l1.89-.12c1.23-.08 2.47-.17 3.7-.24.89 0 1.78-.07 2.67-.1 1.06 0 2.11-.09 3.17-.11 1.06-.02 2 0 3 0h3.34c-4 .573-7.936 1.303-11.81 2.19a149.827 149.827 0 0 0-11.5 3.12 151.171 151.171 0 0 0-46.68 24.39 154.198 154.198 0 0 0-25.15 24.35 155.858 155.858 0 0 0-7.08 9.32 149.013 149.013 0 0 0-24.84 59.67 155.51 155.51 0 0 0 .93 59.63c.09.82.16 1.48.24 2 .08.52.14 1 .21 1.53.22 1.6.48 3.23.74 4.83l.05.35c.14.81.28 1.62.42 2.42 0 .18.07.36.11.55.12.62.24 1.23.37 1.84.06.3.15.59.22.88.12.48.22 1 .35 1.45.09.34.21.67.31 1 .1.33.25.86.4 1.29-.3-.86-.66-1.71-1-2.6a199.37 199.37 0 0 0 4.19 16.62 205.268 205.268 0 0 0 10 26.6 195.278 195.278 0 0 0 5 10.18 209.083 209.083 0 0 0 11.66 19.4 256.149 256.149 0 0 0 3.21 4.66 209.376 209.376 0 0 0 17.89 21.89 204.875 204.875 0 0 0 54 41.23 202.38 202.38 0 0 0 26.13 11.48A209.157 209.157 0 0 0 617 719a207.004 207.004 0 0 0 32.58-10.43 202.347 202.347 0 0 0 10.91-4.9c3.587-1.74 7.12-3.58 10.6-5.52 3.48-1.94 6.897-3.98 10.25-6.12a203.827 203.827 0 0 0 23.91-17.81c3.007-2.607 5.937-5.3 8.79-8.08a177.782 177.782 0 0 0 4.21-4.21Zm-437.17-66.7a208.226 208.226 0 0 1 .3-64.78 197.534 197.534 0 0 1 1.67-9c.627-2.987 1.314-5.96 2.06-8.92a210.21 210.21 0 0 1 5.27-17.53c1.474-4.227 3.084-8.4 4.83-12.52 1.3-3.05 2.69-6.06 4.13-9a205.318 205.318 0 0 1 40.77-57c3.18-3.14 6.467-6.177 9.86-9.11a206.687 206.687 0 0 1 103.81-47.92 207.029 207.029 0 0 1 69.32 1.2c-.68 0-1.36-.06-2-.09.49 0 1 .1 1.45.15.45.05 1 .09 1.56.16l.91.13 1 .16c.5.08 1 .16 1.51.25s1.29.27 1.94.41l1.44.31 2 .5 1.38.35 1.09.3 1 .28 1.29.36 3.15.9 2.51.7.88.25c1.12.3 2.24.59 3.35.86 2.89.7 5.74 1.51 8.57 2.38a150.052 150.052 0 0 1 15.78 5.76c1.92.827 3.82 1.697 5.7 2.61a150.633 150.633 0 0 1 16.39 9.18 152.168 152.168 0 0 1 10.24 7.24 147.446 147.446 0 0 1 9.61 8.08 151.22 151.22 0 0 1 48 94.57 150.43 150.43 0 0 1-7.73 66.3 194.95 194.95 0 0 0 5.39-10.86 202.269 202.269 0 0 0 4.7-11.12 203.376 203.376 0 0 0 12.67-52.85c.58-5.64.914-11.307 1-17v-.41A200.989 200.989 0 0 0 657 377.67c-25.21-50.67-71.86-89-126.27-104.6a205.52 205.52 0 0 0-31.63-6.42c-3.566-.44-7.14-.773-10.72-1-1.73-.12-3.43-.2-5.12-.25h-6.5c-1.606.04-3.213.123-4.82.25l-.93.08c-1.69.15-3.38.34-5.09.6-5.27.82-10.49 1.88-15.7 3-2.6.58-5.21 1.14-7.8 1.8-3.58.913-7.14 1.913-10.68 3a258.407 258.407 0 0 0-41.12 16.38A256.577 256.577 0 0 0 362 307.25c-5.7 3.86-11.15 8-16.41 12.31a226.088 226.088 0 0 0-18.46 16.89 241.684 241.684 0 0 0-28.51 35.48 256.593 256.593 0 0 0-17 30 245.216 245.216 0 0 0-9 21.17 257.645 257.645 0 0 0-9.93 33.07c-.79 3.49-1.49 7-2.13 10.51-.1.55-.21 1.1-.31 1.65a246.119 246.119 0 0 0-1.56 10.11l-.25 1.92c-.43 3.42-.81 6.84-1.1 10.27 0 .42-.06.84-.09 1.25a249.36 249.36 0 0 0-.61 10.2v.89c-.14 3.8-.193 7.6-.16 11.4v.47c0 3.33.15 6.66.31 10a268.27 268.27 0 0 0 .87 12.16c0 .36.06.73.09 1.09.35 3.44.78 6.86 1.26 10.28.13.89.26 1.78.4 2.67.44 2.873.924 5.74 1.45 8.6.12.64.22 1.28.35 1.91a291.081 291.081 0 0 0 2.18 10.08c.19.81.4 1.61.6 2.42.667 2.753 1.39 5.493 2.17 8.22.22.78.43 1.55.65 2.33.96 3.3 1.987 6.58 3.08 9.84.22.66.46 1.32.69 2 .94 2.727 1.94 5.433 3 8.12.32.83.63 1.66 1 2.48.71 1.79 1.48 3.56 2.23 5.33.6 1.41 1.15 2.84 1.77 4.24.19.43.4.85.59 1.28.61 1.36 1.28 2.7 1.92 4 .64 1.3 1.32 2.85 2 4.26.407.827.82 1.653 1.24 2.48.64 1.25 1.32 2.48 2 3.72 1 1.85 1.92 3.71 2.95 5.53 3.64 6.46 7.557 12.77 11.75 18.93A199.334 199.334 0 0 1 286.17 619a205.303 205.303 0 0 1-5.09-23.77ZM766 481c-6.87-56.61-33-109.65-73.13-150.08-41.77-42-97.83-67.5-156.53-73.61a237.256 237.256 0 0 0-24.06-1.31h-.68c-4.39 0-8.77.16-13.14.48-5.83.41-11.49 1.61-17.29 2.33.71 0 19.32 1.11 21.17 1.31 6.958.76 13.871 1.885 20.71 3.37a204.998 204.998 0 0 1 159 233.86c-.52 3-1.07 6-1.68 9-.61 3-1.34 5.94-2.09 8.9-.75 2.96-1.61 5.87-2.51 8.79-.9 2.92-1.86 5.81-2.89 8.69s-2.13 5.7-3.26 8.55c-1.13 2.85-2.37 5.63-3.64 8.38-1.27 2.75-2.61 5.5-4 8.21-1.39 2.71-2.85 5.39-4.36 8-1.51 2.61-3.09 5.26-4.71 7.83-1.62 2.57-3.33 5.12-5 7.63s-3.54 5-5.39 7.39c-1.61 2.1-3.33 4.12-4.95 6.22-1.06 1.31-2.13 2.61-3.26 3.88-.65.76-1.3 1.48-2 2.2-.7.72-1.41 1.41-2 2.16-4.33 4.67-8.86 9.17-13.6 13.4a184.287 184.287 0 0 1-27.79 20.82 153.393 153.393 0 0 1-56.13 20.27c-37.82 5.67-77.43-3.23-108.89-25.08a142.853 142.853 0 0 1-44.24-49.43 249.822 249.822 0 0 0 24.53 47.78c10 14.94 22.84 28.2 36.72 39.57a202.615 202.615 0 0 0 105.7 44.31 204.862 204.862 0 0 0 157.08-49 177.967 177.967 0 0 0 20.09-20c6.32-7.56 11.06-17.24 15.53-26A257.834 257.834 0 0 0 761 560.58a255.15 255.15 0 0 0 6.56-46.23v-15.06A241.59 241.59 0 0 0 766 481Z"/>
   </g>
   <defs>
      <clipPath id="a">
         <path fill="#fff" d="M0 0h1024v1024H0z"/>
      </clipPath>
   </defs>
</svg>

<svg width="1024" height="1024" viewBox="0 0 1024 1024" fill="none" xmlns="http://www.w3.org/2000/svg">
<g clip-path="url(#clip0_2_2424)">
<path d="M512 1024C794.77 1024 1024 794.77 1024 512C1024 229.23 794.77 0 512 0C229.23 0 0 229.23 0 512C0 794.77 229.23 1024 512 1024Z" fill="#FF837D"/>
<path d="M718.25 661.93C721.017 659.063 723.684 656.113 726.25 653.08C722.144 659.347 717.77 665.407 713.13 671.26C699.256 688.769 683.137 704.377 665.19 717.68C662.21 719.893 659.18 722.04 656.1 724.12C637.591 736.657 617.512 746.704 596.38 754C592.847 755.22 589.284 756.36 585.69 757.42C575.019 760.563 564.157 763.014 553.17 764.76C545.837 765.927 538.434 766.783 530.96 767.33C527.24 767.603 523.51 767.793 519.77 767.9C512.304 768.12 504.837 768.013 497.37 767.58C486.198 766.938 475.082 765.535 464.1 763.38C453.154 761.235 442.378 758.294 431.86 754.58C424.861 752.105 417.995 749.267 411.29 746.08C408.09 744.553 404.924 742.963 401.79 741.31C398.657 739.657 395.56 737.937 392.5 736.15C386.38 732.583 380.417 728.773 374.61 724.72C350.245 707.726 329.016 686.629 311.87 662.37C309.513 658.882 307.503 655.171 305.87 651.29C304.48 648.15 303.2 644.96 301.96 641.9C299.51 635.81 297.4 629.58 295.53 623.28C295.28 622.43 294.98 621.6 294.74 620.75C293.754 617.25 292.864 613.733 292.07 610.2C288.118 592.552 286.514 574.458 287.3 556.39C288.225 534.748 292.538 513.386 300.08 493.08C305.128 479.487 311.64 466.484 319.5 454.3C323.908 447.49 328.73 440.958 333.94 434.74C335.727 432.607 337.554 430.513 339.42 428.46C340.95 426.78 342.49 425.13 344.07 423.46C350.163 417.23 356.649 411.398 363.49 406C366.317 403.76 369.2 401.597 372.14 399.51C374.807 397.603 377.537 395.76 380.33 393.98C382.264 392.74 384.22 391.533 386.2 390.36C389.534 388.4 392.89 386.533 396.27 384.76C398.5 383.6 400.74 382.47 403 381.39C409.753 378.186 416.677 375.355 423.74 372.91C437.95 367.987 452.67 364.683 467.62 363.06H468.11C469.89 362.873 471.67 362.707 473.45 362.56H473.7L475.59 362.44C476.82 362.36 478.06 362.27 479.29 362.2C480.18 362.2 481.07 362.13 481.96 362.1C483.02 362.1 484.07 362.01 485.13 361.99C486.19 361.97 487.13 361.99 488.13 361.99H491.47C487.47 362.563 483.534 363.293 479.66 364.18C475.787 365.067 471.954 366.107 468.16 367.3C451.293 372.636 435.493 380.891 421.48 391.69C412.2 398.825 403.762 406.995 396.33 416.04C393.857 419.053 391.497 422.16 389.25 425.36C376.704 443.193 368.225 463.562 364.41 485.03C360.87 504.78 361.186 525.03 365.34 544.66C365.43 545.48 365.5 546.14 365.58 546.66C365.66 547.18 365.72 547.66 365.79 548.19C366.01 549.79 366.27 551.42 366.53 553.02L366.58 553.37C366.72 554.18 366.86 554.99 367 555.79C367 555.97 367.07 556.15 367.11 556.34C367.23 556.96 367.35 557.57 367.48 558.18C367.54 558.48 367.63 558.77 367.7 559.06C367.82 559.54 367.92 560.06 368.05 560.51C368.14 560.85 368.26 561.18 368.36 561.51C368.46 561.84 368.61 562.37 368.76 562.8C368.46 561.94 368.1 561.09 367.76 560.2C368.92 565.807 370.317 571.347 371.95 576.82C374.665 585.907 378.006 594.795 381.95 603.42C383.517 606.86 385.184 610.253 386.95 613.6C390.484 620.273 394.376 626.749 398.61 633C399.664 634.567 400.734 636.12 401.82 637.66C406.191 643.813 410.891 649.725 415.9 655.37C417.154 656.783 418.424 658.177 419.71 659.55C435.29 676.203 453.541 690.138 473.71 700.78C482.139 705.217 490.871 709.053 499.84 712.26C537.45 725.641 578.104 727.98 617 719C622.54 717.72 628.03 716.21 633.47 714.47C638.91 712.73 644.28 710.763 649.58 708.57C653.267 707.043 656.904 705.41 660.49 703.67C664.077 701.93 667.61 700.09 671.09 698.15C674.57 696.21 677.987 694.17 681.34 692.03C689.734 686.685 697.726 680.732 705.25 674.22C708.257 671.613 711.187 668.92 714.04 666.14C715.46 664.767 716.864 663.363 718.25 661.93ZM281.08 595.23C277.8 573.753 277.901 551.895 281.38 530.45C281.867 527.437 282.424 524.437 283.05 521.45C283.677 518.463 284.364 515.49 285.11 512.53C286.61 506.617 288.367 500.773 290.38 495C291.854 490.773 293.464 486.6 295.21 482.48C296.51 479.43 297.9 476.42 299.34 473.48C309.563 452.284 323.354 433.003 340.11 416.48C343.29 413.34 346.577 410.303 349.97 407.37C379.379 381.953 415.359 365.344 453.78 359.45C456.654 359.01 459.534 358.633 462.42 358.32C482.652 356.11 503.098 356.895 523.1 360.65C522.42 360.65 521.74 360.59 521.1 360.56C521.59 360.56 522.1 360.66 522.55 360.71C523 360.76 523.55 360.8 524.11 360.87L525.02 361L526.02 361.16C526.52 361.24 527.02 361.32 527.53 361.41C528.04 361.5 528.82 361.68 529.47 361.82L530.91 362.13L532.91 362.63L534.29 362.98L535.38 363.28L536.38 363.56L537.67 363.92L540.82 364.82L543.33 365.52L544.21 365.77C545.33 366.07 546.45 366.36 547.56 366.63C550.45 367.33 553.3 368.14 556.13 369.01C561.494 370.634 566.762 372.557 571.91 374.77C573.83 375.597 575.73 376.467 577.61 377.38C583.259 380.096 588.733 383.162 594 386.56C597.514 388.833 600.927 391.247 604.24 393.8C607.554 396.353 610.757 399.047 613.85 401.88C640.742 426.575 657.791 460.166 661.85 496.45C664.271 518.85 661.629 541.508 654.12 562.75C656.034 559.177 657.83 555.557 659.51 551.89C661.19 548.223 662.757 544.517 664.21 540.77C670.779 523.799 675.04 506.024 676.88 487.92C677.46 482.28 677.794 476.613 677.88 470.92V470.51C678.452 438.338 671.291 406.499 657 377.67C631.79 327 585.14 288.67 530.73 273.07C520.372 270.104 509.796 267.958 499.1 266.65C495.534 266.21 491.96 265.877 488.38 265.65C486.65 265.53 484.95 265.45 483.26 265.4H476.76C475.154 265.44 473.547 265.523 471.94 265.65L471.01 265.73C469.32 265.88 467.63 266.07 465.92 266.33C460.65 267.15 455.43 268.21 450.22 269.33C447.62 269.91 445.01 270.47 442.42 271.13C438.84 272.043 435.28 273.043 431.74 274.13C421.128 277.335 410.733 281.22 400.62 285.76C397.254 287.273 393.92 288.857 390.62 290.51C380.729 295.467 371.169 301.059 362 307.25C356.3 311.11 350.85 315.25 345.59 319.56C339.13 324.845 332.967 330.483 327.13 336.45C316.532 347.353 306.986 359.233 298.62 371.93C292.287 381.537 286.608 391.56 281.62 401.93C278.287 408.85 275.287 415.907 272.62 423.1C268.574 433.889 265.257 444.937 262.69 456.17C261.9 459.66 261.2 463.17 260.56 466.68C260.46 467.23 260.35 467.78 260.25 468.33C259.664 471.663 259.144 475.033 258.69 478.44L258.44 480.36C258.01 483.78 257.63 487.2 257.34 490.63C257.34 491.05 257.28 491.47 257.25 491.88C256.977 495.273 256.774 498.673 256.64 502.08V502.97C256.5 506.77 256.447 510.57 256.48 514.37V514.84C256.48 518.17 256.63 521.5 256.79 524.84C256.837 525.76 256.887 526.68 256.94 527.6C257.13 530.74 257.36 533.87 257.66 537C257.66 537.36 257.72 537.73 257.75 538.09C258.1 541.53 258.53 544.95 259.01 548.37C259.14 549.26 259.27 550.15 259.41 551.04C259.85 553.913 260.334 556.78 260.86 559.64C260.98 560.28 261.08 560.92 261.21 561.55C261.877 564.923 262.604 568.283 263.39 571.63C263.58 572.44 263.79 573.24 263.99 574.05C264.657 576.803 265.38 579.543 266.16 582.27C266.38 583.05 266.59 583.82 266.81 584.6C267.77 587.9 268.797 591.18 269.89 594.44C270.11 595.1 270.35 595.76 270.58 596.44C271.52 599.167 272.52 601.873 273.58 604.56C273.9 605.39 274.21 606.22 274.58 607.04C275.29 608.83 276.06 610.6 276.81 612.37C277.41 613.78 277.96 615.21 278.58 616.61C278.77 617.04 278.98 617.46 279.17 617.89C279.78 619.25 280.45 620.59 281.09 621.89C281.73 623.19 282.41 624.74 283.09 626.15C283.497 626.977 283.91 627.803 284.33 628.63C284.97 629.88 285.65 631.11 286.33 632.35C287.33 634.2 288.25 636.06 289.28 637.88C292.92 644.34 296.837 650.65 301.03 656.81C294.802 644.746 289.823 632.077 286.17 619C284.005 611.184 282.306 603.247 281.08 595.23ZM766 481C759.13 424.39 733 371.35 692.87 330.92C651.1 288.92 595.04 263.42 536.34 257.31C528.348 256.466 520.317 256.029 512.28 256H511.6C507.21 256 502.83 256.16 498.46 256.48C492.63 256.89 486.97 258.09 481.17 258.81C481.88 258.81 500.49 259.92 502.34 260.12C509.298 260.88 516.211 262.005 523.05 263.49C574.513 274.597 619.729 305.077 649.33 348.615C678.931 392.152 690.647 445.409 682.05 497.35C681.53 500.35 680.98 503.35 680.37 506.35C679.76 509.35 679.03 512.29 678.28 515.25C677.53 518.21 676.67 521.12 675.77 524.04C674.87 526.96 673.91 529.85 672.88 532.73C671.85 535.61 670.75 538.43 669.62 541.28C668.49 544.13 667.25 546.91 665.98 549.66C664.71 552.41 663.37 555.16 661.98 557.87C660.59 560.58 659.13 563.26 657.62 565.87C656.11 568.48 654.53 571.13 652.91 573.7C651.29 576.27 649.58 578.82 647.91 581.33C646.24 583.84 644.37 586.33 642.52 588.72C640.91 590.82 639.19 592.84 637.57 594.94C636.51 596.25 635.44 597.55 634.31 598.82C633.66 599.58 633.01 600.3 632.31 601.02C631.61 601.74 630.9 602.43 630.31 603.18C625.98 607.85 621.45 612.35 616.71 616.58C608.123 624.379 598.818 631.35 588.92 637.4C571.718 647.766 552.647 654.653 532.79 657.67C494.97 663.34 455.36 654.44 423.9 632.59C405.479 619.813 390.324 602.88 379.66 583.16C386.096 599.922 394.32 615.941 404.19 630.94C414.19 645.88 427.03 659.14 440.91 670.51C471.145 695.145 507.847 710.531 546.61 714.82C574.758 717.954 603.249 715.217 630.286 706.783C657.322 698.349 682.317 684.401 703.69 665.82C710.908 659.698 717.626 653.01 723.78 645.82C730.1 638.26 734.84 628.58 739.31 619.82C748.938 601.035 756.222 581.14 761 560.58C764.595 545.403 766.791 529.928 767.56 514.35V499.29C767.52 498.397 767.474 497.507 767.42 496.62C767.12 491.4 766.64 486.21 766 481Z" fill="white"/>
</g>
<defs>
<clipPath id="clip0_2_2424">
<rect width="1024" height="1024" fill="white"/>
</clipPath>
</defs>
</svg>
